X:1
T:Eine Kleine Nachtmusik
T:Eine Kleine Nachtmusik - 1st Mvmt.
T:W. A. Mozart
T:Arr. & Ed. by Clifton Jones
T:Bass Clarinet
T:Bass Clarinet
T:Bass Clarinet
T:Bass Clarinet
C:Arr. & Ed. by Clifton Jones
Z:Bass Clarinet
L:1/8
M:4/4
K:G
V:1 treble nm="Piano" snm="Pno."
V:1
!f! G,2 z D !tenuto!G2 z D | GD GB !tenuto!d2 z2 | !tenuto!c2 z A !tenuto!c2 z A | %3
 cA FA !tenuto!D2 z2 | G,G GG GG GG | GG GG GG GG | G,G GG GG GG | GG GG GG GG | GG AA BB FF | %9
 GG AA !tenuto!B2 z2 | z8 |!p! (D4 E4) | C2 C2 D2 D2 | B, z D z !tenuto!G2 z2 | z8 | (D4 E4) | %16
 C2 C2 D2 D2 |!sfz! G,G GG!p! GG GG |!sfz! G,G GG!p! GG GG | GG GG"_cresc." GG GG | GG FF GG EE | %21
!f! D8 | D8 | EF ED EF D | GA BA GA B^G | AA AA AA AA | !tenuto!AA, A,A, !tenuto!A,2 z2 | %27
 z4 z2!p! ^D z | E z D z ^C z A, z | z2 (^A,2 B,) z G, z | A,2 (A3 ^G =GE) | D z E z F z ^D z | %32
 E z D z ^C z A, z | B, z G z A z A, z | !tenuto!D2 z2 z4 | !tenuto!A,2 z2 z4 | !tenuto!D2 z2 z4 | %37
 !tenuto!A,2 z2 z4 | z!f! D FE ^DB, ^CD | EG ED ^CA, B,C | DD EF GG GG | AA AA A,A, A,A, | %42
 !tenuto!D2 z2!p! z4 | !tenuto!A,2 z2 z4 | !tenuto!D2 z2 z4 | !tenuto!A,2 z2 z4 | %46
 z!f! D FE ^DB, ^CD | EG ED ^CA, B,C | DD EF GG GG | AA AA A,A, A,A, | DA, B,^C DD EE | %51
 F^C DE FF GG | AA ^AA !tenuto!B2 z2 |!p! (G4 A4) | D z D z D z z2 :| %55
!f! !tenuto!D2 z A, !tenuto!D2 z A, | DA, DF !tenuto!A2 z2 | !tenuto!A2 z F !tenuto!A2 z F | %58
 AF ^DF !tenuto!B,2 z2 |!p! !tenuto!C2 z2 z4 | !tenuto!G,2 z2 z4 | !tenuto!C2 z2 z4 | %62
 !tenuto!G,2 z2 z4 | !tenuto!C2 z2 z4 | !tenuto!E2 z2 z4 | !tenuto!A,2 z2 z4 | !tenuto!D2 z2 z4 | %67
 (_E8 | E8) | !tenuto!D2 z!f! (D EF GA | c_B) z (F GA B^c | ed) z2 z4 | z8 | z8 |!p!!<(! D8!<)! | %75
!f! !tenuto!G2 z D !tenuto!G2 z D | GD GB !tenuto!d2 z2 | !tenuto!c2 z A !tenuto!c2 z A | %78
 cA FA !tenuto!D2 z2 | G,G GG GG GG | GG GG GG GG | G,G GG GG GG | GG GG GG GG | GG AA BB FF | %84
 GG AA !tenuto!B2 z2 | z8 |!p! (D4 E4) | C2 C2 D2 D2 | B, z D z !tenuto!G2 z2 | z8 | (D4 E4) | %91
 C2 C2 D2 D2 |!sfz! GG GG!p! GG GG |!sfz! GG GG!p! GG GG | GG GG"_cresc." GG GG | GG FF GG EE | %96
!f! D8 | D8 | DD DD DD DD | DD DD !tenuto!D2 z2 | z4 z2!p! ^G z | A z G z F z D z | %102
 z2 (^D2 E) z C z | D2 (d3 ^c =cA) | G z A z B z ^G z | A z G z F z D z | E z C z D z D z | %107
 !tenuto!G,2 z2 z4 | !tenuto!D2 z2 z4 | !tenuto!G,2 z2 z4 | !tenuto!D2 z2 z4 | z!f! G BA ^GE FG | %112
 Ac AG FD EF | GG AB cc cc | dd dd DD DD | !tenuto!G2 z2 z4 |!p! !tenuto!D2 z2 z4 | %117
 !tenuto!G2 z2 z4 | !tenuto!D2 z2 z4 | z!f! G BA ^GE FG | Ac AG FD EF | BB BB DD DD | %122
 !tenuto!GD EF GG AA | BF GA BB cc | dd ^dd !tenuto!e2 z2 |!p! (C4 D4) | !tenuto!G,2 z2 z4 | %127
 (C4 D4) | !tenuto!G,2 z2 z4 | !tenuto!C2 z2!f! !tenuto!D2 z2 | G,G, G,G, G,G, G,G, | %131
 G,G, G,G, G,G, G,G, | G,G, G,G, G,G, G,G, | G,G, G,G, G,G, G,G, | G,B, DG BG dB | %135
 !tenuto!G2 !>!G,>G, !tenuto!G,2 z2 |] %136

